src/lib/packages/icons/src/assets/line/arrow-turn-down-right.svg

<svg width="24" height="24" viewBox="0 0 24 24" fill="none" xmlns="http://www.w3.org/2000/svg">
<path d="M22.6919 14.2871C22.6539 14.3791 22.599 14.462 22.53 14.531L18.53 18.531C18.384 18.677 18.192 18.751 18 18.751C17.808 18.751 17.616 18.678 17.47 18.531C17.177 18.238 17.177 17.763 17.47 17.47L20.1899 14.75H7C4.933 14.75 3.25 13.068 3.25 11V6C3.25 5.586 3.586 5.25 4 5.25C4.414 5.25 4.75 5.586 4.75 6V11C4.75 12.241 5.76 13.25 7 13.25H20.189L17.469 10.53C17.176 10.237 17.176 9.76199 17.469 9.46899C17.762 9.17599 18.237 9.17599 18.53 9.46899L22.53 13.469C22.599 13.538 22.6539 13.6209 22.6919 13.7129C22.7679 13.8969 22.7679 14.1031 22.6919 14.2871Z" fill="currentColor"/>
</svg>

<svg xmlns="http://www.w3.org/2000/svg" width="24" height="24" fill="none"><path fill="currentColor" d="M22.692 14.287a.748.748 0 0 1-.162.244l-4 4a.748.748 0 0 1-1.06 0 .75.75 0 0 1 0-1.061l2.72-2.72H7A3.755 3.755 0 0 1 3.25 11V6a.75.75 0 0 1 1.5 0v5c0 1.241 1.01 2.25 2.25 2.25h13.189l-2.72-2.72a.75.75 0 1 1 1.061-1.061l4 4a.748.748 0 0 1 .162.818Z"/></svg>
